X:0180
T:Ranger's Frolick
M:6/8
L:1/8
Q:3/8=120
I: :: :: ::
Z:Jack Campin * www.campin.me.uk * 2009
K:G
G2G G2d|BGB c2A|G2G G2d|AFA cBA |
G2G G2d|BGB g2d|ece dBd|AFA cBA:|
gfg dcB|gfg dcB|gfg def|AFA c2A |
gfg dcB|gfg d2B|c2a B2g|AFA cBA:|
BGG FDD|BGB cBA|BGG FDD|AFA c2A |
BGG FDD|gfe dcB|cac BgB|AFA c2A:|
<end>
<start>
